img/add.svg

<svg width="23" height="23" viewBox="0 0 23 23" fill="none" xmlns="http://www.w3.org/2000/svg">
<rect width="23" height="23" rx="5" fill="#C4C4C4"/>
<rect width="23" height="23" rx="5" fill="url(#paint0_linear)"/>
<path d="M15.821 10.4517C15.7017 10.3324 15.5567 10.2728 15.3863 10.2728H12.7272V7.61358C12.7272 7.44318 12.6675 7.29826 12.5482 7.17893C12.4289 7.05969 12.2841 7 12.1135 7H10.8863C10.7159 7 10.571 7.05962 10.4517 7.17895C10.3323 7.29828 10.2727 7.4432 10.2727 7.6136V10.2728H7.6136C7.4432 10.2728 7.29828 10.3324 7.17895 10.4518C7.05962 10.5711 7 10.7159 7 10.8864V12.1137C7 12.2842 7.0596 12.4291 7.17893 12.5483C7.29826 12.6676 7.44318 12.7272 7.61358 12.7272H10.2727V15.3865C10.2727 15.5569 10.3323 15.7019 10.4516 15.8212C10.571 15.9404 10.7159 16 10.8863 16H12.1135C12.2841 16 12.4289 15.9404 12.5482 15.8212C12.6676 15.7018 12.7272 15.5569 12.7272 15.3865V12.7272H15.3863C15.5568 12.7272 15.7017 12.6676 15.821 12.5483C15.9403 12.4291 16 12.2842 16 12.1137V10.8864C15.9999 10.7159 15.9404 10.571 15.821 10.4517Z" fill="white"/>
<defs>
<linearGradient id="paint0_linear" x1="14.2904" y1="23.0009" x2="14.9219" y2="3.12367" gradientUnits="userSpaceOnUse">
<stop stop-color="#FEBA6F"/>
<stop offset="1" stop-color="#F98132"/>
</linearGradient>
</defs>
</svg>

<svg width="23" height="23" fill="none" xmlns="http://www.w3.org/2000/svg"><rect width="23" height="23" rx="5" fill="#C4C4C4"/><rect width="23" height="23" rx="5" fill="url(#paint0_linear)"/><path d="M15.821 10.452a.592.592 0 00-.435-.18h-2.659V7.615c0-.17-.06-.316-.179-.435a.592.592 0 00-.434-.18h-1.228c-.17 0-.315.06-.434.179a.592.592 0 00-.18.435v2.659H7.615c-.17 0-.316.06-.435.179a.591.591 0 00-.179.434v1.228c0 .17.06.315.179.434.12.12.264.18.435.18h2.659v2.659c0 .17.06.315.179.434.119.12.264.179.434.179h1.228c.17 0 .315-.06.434-.179a.592.592 0 00.18-.434v-2.66h2.658c.17 0 .316-.06.435-.179a.591.591 0 00.179-.434v-1.228c0-.17-.06-.315-.179-.434z" fill="#fff"/><defs><linearGradient id="paint0_linear" x1="14.29" y1="23.001" x2="14.922" y2="3.124" gradientUnits="userSpaceOnUse"><stop stop-color="#FEBA6F"/><stop offset="1" stop-color="#F98132"/></linearGradient></defs></svg>
